X:1
T:Polka aus Estland
C:traditionell
A:Estonia
Z:abc transcription Simon Wascher
M:2/4
L:1/8
K:G
BG Bc/B/ | AF AB | cA cd/c/ | BA G2 |
BG Bc/B/ | AF AB | d/c/B c/B/A | GB G2 :|
|:\
dd e>d | cB A2 | cc d>c | BA BG |
dd e>d | cB A2 | d>e d/c/B/A/ | GB G2 :|
%%wordsfont Times-Italic 11pt
W:aus Simon Waschers TradArchiv
